data/styles/clear/style-clear/symbols/petshop-m.svg

<svg height="24" viewBox="0 0 24 24" width="24"><g fill="none" fill-rule="evenodd"><circle cx="12" cy="12" fill="#fff" opacity=".6" r="12"/><circle cx="12" cy="12" fill="#8c5f93" r="11"/><path d="m16.0640717 6.46503629c-.6193594-.62004839-1.6245265-.62004839-2.2438858 0-.5773336.57733371-.609714 1.48535979-.1102308 2.10885286-1.3668618 2.02204605-3.2414742 3.77884945-5.14502215 5.12779885-.622804-.4912161-1.52531872-.45608-2.09989666.1184979-.62004839.6200484-.62004839 1.6245264 0 2.2445747.28246633.2824665.64622796.4299001 1.01619001.454702.02480193.3692732.17154664.7330348.45470204 1.0161902.61935932.6193593 1.62452646.6193593 2.24388576 0 .5752668-.575267.6097141-1.4784706.1164313-2.1019635 1.3806406-1.9076817 3.4894935-4.023424 5.123665-5.1477782.622804.5043059 1.5356527.4739924 2.1150533-.106097.6200484-.6193593.6200484-1.62383754 0-2.24388576-.2824663-.28246633-.6462279-.42990011-1.01619-.45401313-.024113-.37065096-.1715466-.73441259-.454702-1.01687892z" fill="#fff"/></g></svg>

<svg width="24" height="24" viewBox="0 0 24 24">
  <g fill="none" fill-rule="evenodd">
    <circle cx="12" cy="12" r="12" fill="#FFF" opacity=".6"/>
    <circle cx="12" cy="12" r="11" fill="#8C5F93"/>
    <path fill="#FFF" d="M16.0640717,6.46503629 C15.4447123,5.8449879 14.4395452,5.8449879 13.8201859,6.46503629 C13.2428523,7.04237 13.2104719,7.95039608 13.7099551,8.57388915 C12.3430933,10.5959352 10.4684809,12.3527386 8.56493295,13.701688 C7.94212895,13.2104719 7.03961423,13.245608 6.46503629,13.8201859 C5.8449879,14.4402343 5.8449879,15.4447123 6.46503629,16.0647606 C6.74750262,16.3472271 7.11126425,16.4946607 7.4812263,16.5194626 C7.50602823,16.8887358 7.65277294,17.2524974 7.93592834,17.5356528 C8.55528766,18.1550121 9.5604548,18.1550121 10.1798141,17.5356528 C10.7550809,16.9603858 10.7895282,16.0571822 10.2962454,15.4336893 C11.676886,13.5260076 13.7857389,11.4102653 15.4199104,10.2859111 C16.0427144,10.790217 16.9555631,10.7599035 17.5349637,10.1798141 C18.1550121,9.5604548 18.1550121,8.55597656 17.5349637,7.93592834 C17.2524974,7.65346201 16.8887358,7.50602823 16.5187737,7.48191521 C16.4946607,7.11126425 16.3472271,6.74750262 16.0640717,6.46503629 L16.0640717,6.46503629 L16.0640717,6.46503629 Z"/>
  </g>
</svg>
